X:94
M:2/4
L:1/8
K:G
| D>E GA | Bd BA | B/c/d BA | GE EG/E/ | 
| dB BA | GE EG | B/c/d eg | bg gb | 
a>g ed | eG GB | A>G ED | EG G2 :|| 

